Newaita-dark/mimetypes/24/text-css.svg

<?xml version="1.0" encoding="UTF-8"?>
<svg xmlns="http://www.w3.org/2000/svg" xmlns:xlink="http://www.w3.org/1999/xlink" width="24px" height="24px" viewBox="0 0 24 24" version="1.1">
<defs>
<linearGradient id="linear0" gradientUnits="userSpaceOnUse" x1="254" y1="233.5" x2="254" y2="254.666672" gradientTransform="matrix(0.0468795,0,0,0.0468795,0.49614,10.079089)">
<stop offset="0" style="stop-color:rgb(0%,0%,0%);stop-opacity:0.27451;"/>
<stop offset="1" style="stop-color:rgb(0%,0%,0%);stop-opacity:0;"/>
</linearGradient>
<radialGradient id="radial0" gradientUnits="userSpaceOnUse" cx="450.908936" cy="189.579361" fx="450.908936" fy="189.579361" r="21.166656" gradientTransform="matrix(0.000000130628,-0.0585994,-0.105479,-0.0000000761539,37.113427,47.696499)">
<stop offset="0" style="stop-color:rgb(0%,0%,0%);stop-opacity:0.313726;"/>
<stop offset="0.222222" style="stop-color:rgb(0%,0%,0%);stop-opacity:0.27451;"/>
<stop offset="1" style="stop-color:rgb(0%,0%,0%);stop-opacity:0;"/>
</radialGradient>
<radialGradient id="radial1" gradientUnits="userSpaceOnUse" cx="450.908936" cy="189.579361" fx="450.908936" fy="189.579361" r="21.166656" gradientTransform="matrix(-0.000000130628,0.0585994,0.105479,0.0000000761539,-13.794787,-5.645609)">
<stop offset="0" style="stop-color:rgb(0%,0%,0%);stop-opacity:0.313726;"/>
<stop offset="0.222222" style="stop-color:rgb(0%,0%,0%);stop-opacity:0.27451;"/>
<stop offset="1" style="stop-color:rgb(0%,0%,0%);stop-opacity:0;"/>
</radialGradient>
<radialGradient id="radial2" gradientUnits="userSpaceOnUse" cx="450.908936" cy="189.579361" fx="450.908936" fy="189.579361" r="21.166656" gradientTransform="matrix(-0.000000130628,-0.0585994,0.105479,-0.0000000761539,-13.794787,47.696499)">
<stop offset="0" style="stop-color:rgb(0%,0%,0%);stop-opacity:0.313726;"/>
<stop offset="0.222222" style="stop-color:rgb(0%,0%,0%);stop-opacity:0.27451;"/>
<stop offset="1" style="stop-color:rgb(0%,0%,0%);stop-opacity:0;"/>
</radialGradient>
<radialGradient id="radial3" gradientUnits="userSpaceOnUse" cx="450.908936" cy="189.579361" fx="450.908936" fy="189.579361" r="21.166656" gradientTransform="matrix(0.000000130628,0.0585994,-0.105479,0.0000000761539,37.113425,-5.64561)">
<stop offset="0" style="stop-color:rgb(0%,0%,0%);stop-opacity:0.313726;"/>
<stop offset="0.222222" style="stop-color:rgb(0%,0%,0%);stop-opacity:0.27451;"/>
<stop offset="1" style="stop-color:rgb(0%,0%,0%);stop-opacity:0;"/>
</radialGradient>
<linearGradient id="linear1" gradientUnits="userSpaceOnUse" x1="940" y1="1695.118164" x2="940" y2="175.118118" gradientTransform="matrix(0.0124035,0,0,0.0124035,0,0.00000000000000141)">
<stop offset="0" style="stop-color:rgb(100%,80.000001%,50.196081%);stop-opacity:1;"/>
<stop offset="1" style="stop-color:rgb(100%,87.843138%,69.803923%);stop-opacity:1;"/>
</linearGradient>
<linearGradient id="linear2" gradientUnits="userSpaceOnUse" x1="249.189423" y1="233.5" x2="249.189423" y2="254.666687" gradientTransform="matrix(0.0224206,0,0,0.082039,11.281818,-12.270683)">
<stop offset="0" style="stop-color:rgb(0%,0%,0%);stop-opacity:0.27451;"/>
<stop offset="1" style="stop-color:rgb(0%,0%,0%);stop-opacity:0;"/>
</linearGradient>
<linearGradient id="linear3" gradientUnits="userSpaceOnUse" x1="338.666656" y1="233.5" x2="338.666656" y2="-168.666672" gradientTransform="matrix(0.0468795,0,0,0.0468795,0,10.079087)">
<stop offset="0" style="stop-color:rgb(100%,65.490198%,14.901961%);stop-opacity:1;"/>
<stop offset="1" style="stop-color:rgb(100%,71.764708%,30.19608%);stop-opacity:1;"/>
</linearGradient>
<linearGradient id="linear4" gradientUnits="userSpaceOnUse" x1="880" y1="1695.118164" x2="880" y2="175.118118" gradientTransform="matrix(1,0,0,1,0,-0)">
<stop offset="0" style="stop-color:rgb(100%,65.490198%,14.901961%);stop-opacity:1;"/>
<stop offset="1" style="stop-color:rgb(100%,71.764708%,30.19608%);stop-opacity:1;"/>
</linearGradient>
</defs>
<g id="surface1">
<path style=" stroke:none;fill-rule:nonzero;fill:url(#linear0);" d="M 5.953125 21.027344 L 17.363281 21.027344 L 17.363281 22.019531 L 5.953125 22.019531 Z M 5.953125 21.027344 "/>
<path style=" stroke:none;fill-rule:nonzero;fill:url(#radial0);" d="M 17.363281 21.027344 L 19.347656 21.027344 L 19.347656 20.03125 L 17.363281 20.03125 Z M 17.363281 21.027344 "/>
<path style=" stroke:none;fill-rule:nonzero;fill:url(#radial1);" d="M 5.953125 21.027344 L 3.96875 21.027344 L 3.96875 22.019531 L 5.953125 22.019531 Z M 5.953125 21.027344 "/>
<path style=" stroke:none;fill-rule:nonzero;fill:url(#radial2);" d="M 5.953125 21.027344 L 3.96875 21.027344 L 3.96875 20.03125 L 5.953125 20.03125 Z M 5.953125 21.027344 "/>
<path style=" stroke:none;fill-rule:nonzero;fill:url(#radial3);" d="M 17.363281 21.027344 L 19.347656 21.027344 L 19.347656 22.019531 L 17.363281 22.019531 Z M 17.363281 21.027344 "/>
<path style=" stroke:none;fill-rule:nonzero;fill:url(#linear1);" d="M 13.90625 2.171875 L 4.960938 2.171875 C 4.410156 2.171875 3.96875 2.613281 3.96875 3.164062 L 3.96875 20.03125 C 3.96875 20.582031 4.410156 21.027344 4.960938 21.027344 L 18.355469 21.027344 C 18.90625 21.027344 19.347656 20.582031 19.347656 20.03125 L 19.347656 7.613281 Z M 13.90625 2.171875 "/>
<path style=" stroke:none;fill-rule:nonzero;fill:url(#linear2);" d="M 13.890625 6.886719 L 18.605469 6.886719 L 19.347656 7.628906 L 19.347656 8.621094 L 13.890625 8.621094 Z M 13.890625 6.886719 "/>
<path style=" stroke:none;fill-rule:nonzero;fill:rgb(0%,0%,0%);fill-opacity:0.235294;" d="M 3.96875 19.648438 L 3.96875 20.03125 C 3.96875 20.582031 4.410156 21.027344 4.960938 21.027344 L 18.355469 21.027344 C 18.90625 21.027344 19.347656 20.582031 19.347656 20.03125 L 19.347656 19.648438 C 19.347656 20.199219 18.90625 20.640625 18.355469 20.640625 L 4.960938 20.640625 C 4.410156 20.640625 3.96875 20.199219 3.96875 19.648438 Z M 3.96875 19.648438 "/>
<path style=" stroke:none;fill-rule:nonzero;fill:rgb(100%,100%,100%);fill-opacity:0.392157;" d="M 4.960938 2.171875 C 4.410156 2.171875 3.96875 2.613281 3.96875 3.164062 L 3.96875 3.535156 C 3.96875 2.988281 4.410156 2.542969 4.960938 2.542969 L 13.90625 2.542969 L 19.347656 7.988281 L 19.347656 7.613281 L 13.90625 2.171875 Z M 4.960938 2.171875 "/>
<path style=" stroke:none;fill-rule:nonzero;fill:url(#linear3);" d="M 19.347656 7.613281 L 13.90625 2.171875 L 13.90625 6.621094 C 13.90625 7.171875 14.347656 7.613281 14.898438 7.613281 Z M 19.347656 7.613281 "/>
<path style=" stroke:none;fill-rule:nonzero;fill:rgb(0%,0%,0%);fill-opacity:0.235294;" d="M 13.90625 6.390625 L 13.90625 6.621094 C 13.90625 7.171875 14.347656 7.613281 14.898438 7.613281 L 19.347656 7.613281 L 19.117188 7.382812 L 14.898438 7.382812 C 14.347656 7.382812 13.90625 6.9375 13.90625 6.390625 Z M 13.90625 6.390625 "/>
<path style=" stroke:none;fill-rule:nonzero;fill:rgb(100%,100%,100%);fill-opacity:0.392157;" d="M 13.90625 2.171875 L 13.90625 2.542969 L 18.976562 7.613281 L 19.347656 7.613281 Z M 13.90625 2.171875 "/>
<path style=" stroke:none;fill-rule:nonzero;fill:rgb(12.941177%,12.941177%,12.941177%);fill-opacity:1;" d="M 13.90625 2.101562 C 13.867188 2.101562 13.835938 2.132812 13.835938 2.171875 L 13.835938 6.621094 C 13.835938 7.210938 14.3125 7.683594 14.898438 7.683594 L 19.347656 7.683594 C 19.378906 7.683594 19.402344 7.667969 19.414062 7.640625 C 19.425781 7.617188 19.417969 7.585938 19.398438 7.566406 L 13.957031 2.121094 C 13.941406 2.109375 13.925781 2.101562 13.90625 2.101562 Z M 13.976562 2.339844 L 19.179688 7.542969 L 14.898438 7.542969 C 14.386719 7.542969 13.976562 7.132812 13.976562 6.621094 Z M 13.976562 2.339844 "/>
<path style=" stroke:none;fill-rule:nonzero;fill:rgb(12.941177%,12.941177%,12.941177%);fill-opacity:1;" d="M 4.960938 2.101562 C 4.375 2.101562 3.898438 2.578125 3.898438 3.164062 L 3.898438 20.03125 C 3.898438 20.621094 4.375 21.097656 4.960938 21.097656 L 18.355469 21.097656 C 18.945312 21.097656 19.417969 20.621094 19.417969 20.03125 L 19.417969 7.613281 C 19.417969 7.597656 19.414062 7.578125 19.398438 7.566406 L 13.957031 2.121094 C 13.941406 2.109375 13.925781 2.101562 13.90625 2.101562 Z M 4.960938 2.242188 L 13.878906 2.242188 L 19.277344 7.644531 L 19.277344 20.03125 C 19.277344 20.546875 18.871094 20.957031 18.355469 20.957031 L 4.960938 20.957031 C 4.449219 20.957031 4.039062 20.546875 4.039062 20.03125 L 4.039062 3.164062 C 4.039062 2.652344 4.449219 2.242188 4.960938 2.242188 Z M 4.960938 2.242188 "/>
<path style="fill-rule:nonzero;fill:url(#linear4);stroke-width:11.338583;stroke-linecap:round;stroke-linejoin:round;stroke:rgb(12.941177%,12.941177%,12.941177%);stroke-opacity:1;stroke-miterlimit:4;" d="M 679.935105 695.051773 C 668.912535 695.051773 660.094479 704.184759 660.094479 715.207329 L 660.094479 935.028869 L 599.94274 975.025051 L 660.094479 1015.021234 L 660.094479 1235.157704 C 660.094479 1246.180274 668.912535 1254.99833 679.935105 1254.99833 L 799.923653 1254.99833 C 810.946223 1254.99833 820.07921 1246.180274 820.07921 1235.157704 L 820.07921 1195.161521 C 820.07921 1184.138951 810.946223 1175.005965 799.923653 1175.005965 L 740.086844 1175.005965 L 740.086844 995.180608 L 709.85351 975.025051 L 740.086844 955.184425 L 740.086844 775.044138 L 799.923653 775.044138 C 810.946223 775.044138 820.07921 766.226082 820.07921 755.203512 L 820.07921 715.207329 C 820.07921 704.184759 810.946223 695.051773 799.923653 695.051773 Z M 1079.896932 695.051773 C 1068.874362 695.051773 1060.056306 704.184759 1060.056306 715.207329 L 1060.056306 755.203512 C 1060.056306 766.226082 1068.874362 775.044138 1079.896932 775.044138 L 1140.048671 775.044138 L 1140.048671 955.184425 L 1169.967075 975.025051 L 1140.048671 995.180608 L 1140.048671 1175.005965 L 1079.896932 1175.005965 C 1068.874362 1175.005965 1060.056306 1184.138951 1060.056306 1195.161521 L 1060.056306 1235.157704 C 1060.056306 1246.180274 1068.874362 1254.99833 1079.896932 1254.99833 L 1199.88548 1254.99833 C 1211.22298 1254.99833 1220.041036 1246.180274 1220.041036 1235.157704 L 1220.041036 1015.021234 L 1279.877845 975.025051 L 1220.041036 935.028869 L 1220.041036 715.207329 C 1220.041036 704.184759 1211.22298 695.051773 1199.88548 695.051773 Z M 940.067758 775.044138 C 906.685117 775.044138 879.916018 801.813237 879.916018 835.195877 C 879.916018 868.263587 906.685117 895.032686 940.067758 895.032686 C 973.135468 895.032686 999.904566 868.263587 999.904566 835.195877 C 999.904566 801.813237 973.135468 775.044138 940.067758 775.044138 Z M 940.067758 1055.017417 C 906.685117 1055.017417 879.916018 1081.786515 879.916018 1115.169156 C 879.916018 1148.236866 906.685117 1175.005965 940.067758 1175.005965 C 973.135468 1175.005965 999.904566 1148.236866 999.904566 1115.169156 C 999.904566 1081.786515 973.135468 1055.017417 940.067758 1055.017417 Z M 940.067758 1055.017417 " transform="matrix(0.0124035,0,0,0.0124035,0,0)"/>
</g>
</svg>

<svg height="32" viewBox="0 0 24 24" width="32" xmlns="http://www.w3.org/2000/svg" xmlns:xlink="http://www.w3.org/1999/xlink"><linearGradient id="a"><stop offset="0" stop-opacity=".275"/><stop offset="1" stop-opacity="0"/></linearGradient><linearGradient id="b" gradientUnits="userSpaceOnUse" x1="12.40352" x2="12.40352" xlink:href="#a" y1="21.02648" y2="22.01878896"/><linearGradient id="c"><stop offset="0" stop-opacity=".314"/><stop offset=".222" stop-opacity=".275"/><stop offset="1" stop-opacity="0"/></linearGradient><radialGradient id="d" cx="450.909" cy="189.579" gradientTransform="matrix(0 -.0586 -.10548 0 37.113 47.696)" gradientUnits="userSpaceOnUse" r="21.167" xlink:href="#c"/><radialGradient id="e" cx="450.909" cy="189.579" gradientTransform="matrix(0 .0586 .10548 0 -13.795 -5.646)" gradientUnits="userSpaceOnUse" r="21.167" xlink:href="#c"/><radialGradient id="f" cx="450.909" cy="189.579" gradientTransform="matrix(0 -.0586 .10548 0 -13.795 47.696)" gradientUnits="userSpaceOnUse" r="21.167" xlink:href="#c"/><radialGradient id="g" cx="450.909" cy="189.579" gradientTransform="matrix(0 .0586 -.10548 0 37.113 -5.646)" gradientUnits="userSpaceOnUse" r="21.167" xlink:href="#c"/><linearGradient id="h" gradientUnits="userSpaceOnUse" x1="11.656" x2="11.656" y1="21.0194632" y2="2.1714632"><stop offset="0" stop-color="#ffcc80"/><stop offset="1" stop-color="#ffe0b2"/></linearGradient><linearGradient id="i" gradientTransform="matrix(.02242 0 0 .08204 11.282 -12.27)" gradientUnits="userSpaceOnUse" x1="249.189" x2="249.189" xlink:href="#a" y1="233.5" y2="254.667"/><linearGradient id="j"><stop offset="0" stop-color="#ffa726"/><stop offset="1" stop-color="#ffb74d"/></linearGradient><linearGradient id="k" gradientUnits="userSpaceOnUse" x1="15.87670896" x2="15.87670896" xlink:href="#j" y1="21.02648" y2="2.17289104"/><linearGradient id="l" gradientUnits="userSpaceOnUse" x1="880" x2="880" xlink:href="#j" y1="1695.118" y2="175.118"/><path d="m5.953 21.027h11.41v.993h-11.41zm0 0" fill="url(#b)"/><path d="m17.363 21.027h1.985v-.996h-1.985zm0 0" fill="url(#d)"/><path d="m5.953 21.027h-1.983v.993h1.984zm0 0" fill="url(#e)"/><path d="m5.953 21.027h-1.983v-.996h1.984zm0 0" fill="url(#f)"/><path d="m17.363 21.027h1.985v.993h-1.985zm0 0" fill="url(#g)"/><path d="m13.906 2.172h-8.945a.989.989 0 0 0 -.992.992v16.867c0 .551.441.996.992.996h13.394c.551 0 .993-.445.993-.996v-12.418zm0 0" fill="url(#h)"/><path d="m13.89 6.887h4.715l.743.742v.992h-5.458zm0 0" fill="url(#i)"/><path d="m3.969 19.648v.383c0 .551.441.996.992.996h13.394c.551 0 .993-.445.993-.996v-.383c0 .551-.442.993-.993.993h-13.394a.989.989 0 0 1 -.992-.993zm0 0" fill-opacity=".235"/><path d="m4.96 2.172a.989.989 0 0 0 -.991.992v.371c0-.547.441-.992.992-.992h8.945l5.442 5.445v-.375l-5.442-5.441zm0 0" fill="#fff" fill-opacity=".392"/><path d="m19.348 7.613-5.442-5.441v4.45c0 .55.442.991.992.991zm0 0" fill="url(#k)"/><path d="m13.906 6.39v.231c0 .55.442.992.992.992h4.45l-.23-.23h-4.22a.991.991 0 0 1 -.992-.992zm0 0" fill-opacity=".235"/><path d="m13.906 2.172v.371l5.07 5.07h.372zm0 0" fill="#fff" fill-opacity=".392"/><path d="m13.906 2.102a.07.07 0 0 0 -.07.07v4.45c0 .589.476 1.062 1.062 1.062h4.45a.068.068 0 0 0 .066-.043c.012-.024.004-.055-.016-.075l-5.441-5.445a.082.082 0 0 0 -.05-.02zm.07.238 5.204 5.203h-4.282a.919.919 0 0 1 -.921-.922zm0 0" fill="#212121"/><path d="m4.96 2.102c-.585 0-1.062.476-1.062 1.062v16.867c0 .59.477 1.067 1.063 1.067h13.394c.59 0 1.063-.477 1.063-1.067v-12.418c0-.015-.004-.035-.02-.047l-5.441-5.445a.082.082 0 0 0 -.05-.02zm0 .14h8.919l5.398 5.403v12.385a.917.917 0 0 1 -.922.926h-13.394a.92.92 0 0 1 -.922-.926v-16.866c0-.512.41-.922.922-.922zm0 0" fill="#212121"/><path d="m679.935 695.052c-11.022 0-19.84 9.133-19.84 20.155v219.823l-60.152 39.996 60.151 39.996v220.137a19.758 19.758 0 0 0 19.841 19.84h119.989c11.022 0 20.155-8.818 20.155-19.84v-39.996c0-11.023-9.133-20.156-20.155-20.156h-59.837v-179.826l-30.233-20.156 30.233-19.84v-180.14h59.837c11.022 0 20.155-8.819 20.155-19.841v-39.997c0-11.022-9.133-20.155-20.155-20.155zm399.962 0c-11.023 0-19.84 9.133-19.84 20.155v39.997a19.758 19.758 0 0 0 19.84 19.84h60.152v180.14l29.918 19.841-29.918 20.156v179.825h-60.152c-11.023 0-19.84 9.133-19.84 20.156v39.996a19.758 19.758 0 0 0 19.84 19.84h119.988c11.338 0 20.156-8.818 20.156-19.84v-220.138l59.837-39.996-59.837-39.996v-219.821c0-11.022-8.818-20.155-20.156-20.155zm-139.83 79.992a59.946 59.946 0 0 0 -60.151 60.152c0 33.068 26.77 59.837 60.152 59.837 33.067 0 59.837-26.77 59.837-59.837 0-33.383-26.77-60.152-59.837-60.152zm0 279.973a59.946 59.946 0 0 0 -60.151 60.152c0 33.068 26.77 59.837 60.152 59.837 33.067 0 59.837-26.77 59.837-59.837 0-33.382-26.77-60.152-59.837-60.152zm0 0" fill="url(#l)" stroke="#212121" stroke-linecap="round" stroke-linejoin="round" stroke-width="11.339" transform="scale(.0124)"/></svg>
